X:1
T:Title
%%score { ( 1 3 ) | 2 }
L:1/8
M:4/4
K:G
V:1 treble nm="Grand Piano"
V:3 treble 
V:2 treble 
V:1
 z4 z2[Q:1/4=108] d2 | d2 B2 G2 [DG]2 | [CE]2 [EG]2 [EG]2 [EG]2 | [DB]2 [B,DG]2 [Gd]2 [GB]2 | %4
[M:3/4] [FA]6 |[M:1/4] [Fd]2 |[M:4/4] d2 B2 G2 [DG]2 | [CE]2 [EG]2 [EG]2 [EG]2 | %8
 [DB]2 [Gd]2 [FA]2 [FB]2 |[M:3/4] [B,G]6 |[M:1/4] d2 |[M:4/4] d4 B2 B2 | B4 G2 G2 | B2 G2 d2 B2 | %14
[M:3/4] [FA]6 |[M:1/4] [Fd]2 |[M:4/4] d2 B2 G2 [DG]2 | [CE]2 [EG]2 [EG]2 [EG]2 | %18
 [DB]2 [Gd]2 [FA]2 [FB]2 |[M:7/4] [B,G]6 z2 z2 z4 |] %20
V:2
 z4 z2 [G,B,G]2 | [G,B,G]2 [G,DG]2[K:bass] [G,B,D]2 [B,,G,]2 | [C,G,]2 [C,C]2 [C,C]2 [C,G,]2 | %3
 [G,,G,]2 G,,2 [G,B,]2 [G,D]2 |[M:3/4] [D,D]6 |[M:1/4] [D,A,]2 | %6
[M:4/4][K:treble] [G,B,G]2 [G,DG]2[K:bass] [G,B,D]2 [B,,G,]2 | [C,G,]2 [C,C]2 [C,C]2 [C,G,]2 | %8
 [D,G,]2 [D,B,]2 [D,C]2 [D,D]2 |[M:3/4] [G,,G,]6 |[M:1/4][K:treble] [G,B,G]2 | %11
[M:4/4] [G,B,G]4 [G,DG]2 [G,DG]2 | [G,DG]4 [G,B,D]2 [G,B,D]2 | [G,DG]2 [G,B,D]2 [G,B,G]2 [G,DG]2 | %14
[M:3/4][K:bass] [D,D]2 D,2 D,2 |[M:1/4] [D,A,]2 | %16
[M:4/4][K:treble] [G,B,G]2 [G,DG]2[K:bass] [G,B,D]2 [B,,G,]2 | [C,G,]2 [C,C]2 [C,C]2 [C,G,]2 | %18
 [D,G,]2 [D,B,]2 [D,C]2 [D,D]2 |[M:7/4] [G,,G,]6 z2 z2 z4 |] %20
V:3
 x8 | x8 | x8 | x8 |[M:3/4] x6 |[M:1/4] x2 |[M:4/4] x8 | x8 | x8 |[M:3/4] x6 |[M:1/4] x2 | %11
[M:4/4] x8 | x8 | x8 |[M:3/4] z2 D2 D2 |[M:1/4] x2 |[M:4/4] x8 | x8 | x8 |[M:7/4] x14 |] %20

